dist/images/union-green.svg

<svg width="40" height="40" viewBox="0 0 40 40" fill="none" xmlns="http://www.w3.org/2000/svg">
<path fill-rule="evenodd" clip-rule="evenodd" d="M19.9329 0H11.9197V5.63008H0V16.8903H11.9206V5.63012H19.9329V0ZM28.0146 5.63008H19.9351V16.8903H28.0146V5.63008ZM39.9982 16.8907H28.0114V37.3163H39.9982V16.8907ZM11.9197 21.4732H19.9329V27.1033H11.9197V21.4732ZM15.9603 37.3159H0V40H15.9603V37.3159Z" fill="#00BAC6"/>
</svg>

<svg width="40" height="40" fill="none" xmlns="http://www.w3.org/2000/svg"><path fill-rule="evenodd" clip-rule="evenodd" d="M19.933 0H11.92v5.63H0v11.26h11.92V5.63h8.013V0zm8.082 5.63h-8.08v11.26h8.08V5.63zm11.983 11.26H28.011v20.426h11.987V16.891zM11.92 21.474h8.013v5.63H11.92v-5.63zm4.04 15.843H0V40h15.96v-2.684z" fill="#00BAC6"/></svg>
